X:1
T:James Gibb editions
T:Domine, secundum actum meum - Palestrina
T:#
%%score [ 1 2 3 4 ]
L:1/8
Q:1/4=108
M:4/4
K:G
V:1 treble-8 nm="Tenor I" snm="T I"
V:2 treble-8 nm="Tenor II" snm="T II"
V:3 bass nm="Bass I" snm="B I"
V:4 bass nm="Bass II" snm="B II"
V:1
"^G.P. da Palestina\n(1525-94)""^Domine, secundum actum meum" z8 | z8 | z8 | z8 | G6 G2 | %5
w: ||||Do- mi-|
 G4 z2 G2 |[M:4/4][K:treble-8] G2 F2 E2 D2 | E4 D4 | z2 G4 F2 | G4 E2 D2 | (E3 F GF FE/D/ | %11
w: ne, se-|cun- dum a- ctum|me- um|no- li|me ju- di-|ca\- * * * * * *|
 E4) D2 d2- |"^," d2 ^c2 d4 | B2 A2 (B2 G2 | A4 G2 F2 | G4) D4 | z2 (G3 ABc | d2) G2 (B3 A | %18
w: * re, no\-|* li me|ju- di- ca\- *||* re:|ni\- * * *|* hil di\- *|
 G4 F2 (B2- | Bc d4) c2 | B8 | G8 | z8 | z2 A4 A2 | d4 B2 d2 | c2 B3 GAB | c2 B3 A G2- | %27
w: * gnum, ni\-|* * * hil|di-|gnum||in con-|spe- ctu tu-|o e\- * * *||
 G2 FE F2 EF | GA G4 F2 | E8 | D4 z4 | G6 G2 | c4 A2 c2- | c2 B2 (A2 G2 | FG/A/ B2 A4) | %35
w: |||gi,|in con-|spe- ctu tu\-|* o e\- *||
 B2 B3 B G2 | (A2 B2 c3 B/A/ | G3) A B4 | z2 A4 G2 | c6 B2 | (A2 G2) d4 | z4 z2 e2- | %42
w: gi. I- de- o|de\- * * * *|* pre- cor|ma- je-|sta- tem|tu\- * am,|ma\-|
 e2 d2 c2 B2- | B2 (A3 G G2- | G2 F2) (G4 | A4) z2 G2 | d4 e4 | d8 | d3 d ^c2 d2 | B2 ^c2 d2 A2 | %50
w: * je- sta- tem|* tu\- * *|* * am,|* ut|tu De-|us|de- le- as i-|ni- qui- ta- tem|
 (B2 A3 G G2- | G2 F2 G2 E2) | D4 z4 | z2 D2 A4 | (B6 A2- | AG G4 F2) | G4 G3 G | F2 G2 E2 F2 | %58
w: me\- * * *||am,|ut tu|De\- *||us de- le-|as i- ni- qui-|
 (G6 FE | F2 D2 E2 F2 | G2 E2) D4 | z2 d2 e2[Q:1/4=107] d2- | %62
w: ta\- * *|* tem me\- *|* * am,|i- ni- qui\-|
[Q:1/4=105] d2[Q:1/4=103] (^c[Q:1/4=102]B)[Q:1/4=101] A2)[Q:1/4=99] B2 | %63
w: * ta\- * * tem|
[Q:1/4=97] (^c2[Q:1/4=95] d4[Q:1/4=92] c2) |[Q:1/4=92] !fermata!d8 |] %65
w: me\- * *|am.|
V:2
 z8 | d6 d2 | d4 z2 d2 | d2 c2 B2 A2 | B8 | E2 B2 B2 G2 |[M:4/4][K:treble-8] d4 G2 (d2- | %7
w: |Do- mi-|ne, se-|cun- dum a- ctum|me-|um, se- cun- dum|a- ctum me\-|
 d2 ^c2) (d3 =c | B4) z4 | z8 | z4 z2 d2- | d2 ^c2 d4 | B2 A2 (B3 A | G2 F2 G2 E2) | D4 d4- | %15
w: * * um *|||no\-|* li me|ju- di- ca\- *||re, ju\-|
 d2 d2 d4 | d8 | z8 | z4 z2 (D2- | DEFG A2) E2 | (GABc d3 c | B2) E2 e4 | d2 (c3 B BA/G/ | %23
w: * di- ca-|re:||ni\-|* * * * * hil|di\- * * * * *|* gnum, ni-|hil di\- * * * *|
 A4 (DEFG | A4) z4 | z8 | G6 G2 | c4 A2 c2- | c2 B2 A4 | B6 AG) | A4 B4- | B4 z2 E2- | E2 E2 A4- | %33
w: * gnum * * *|||in con-|spe- ctu tu\-|* o e\-||* gi,|* in|* con- spe\-|
 A2 G2 (c3 B | A2 G4 F2 | G8 | z4 z2 G2- | GG E2 F2 G2 | A4 z4 | z2 e4 d2 | c2 B2 A4 | G2 F2 E4 | %42
w: * ctu tu\- *|* o e-|gi.|I\-|* de- o de- pre-|cor|ma- je-|sta- tem tu-|am, ma- je-|
 B3 A G4 | D4) d4- | d4 z2 G2 | d2 (d3 cBA | G8) | G4 B3 B | A2 B2 G2 A2 | B2 A4 (FE | F2 E2) D4 | %51
w: sta- tem tu\-|* am,|* ut|tu De\- * * *||us de- le-|as i- ni- qui-|ta- tem me\- *|* * am,|
 z8 | z4 G4 | d4 e4 | d2 G4 F2 | (B3 A/G/ B2 AB | c4) B4 | z8 | z8 | d3 d ^c2 d2 | B2 ^c2 d2 B2 | %61
w: |ut|tu De-|us ut tu|De\- * * * * *|* us|||de- le- as i-|ni- qui- ta- tem|
 A2 (A3 GFE | D2) E2 F2 D2 | E2 A2 A4 | !fermata!A8 |] %65
w: me- am, * * *|* i- ni- qui-|ta- tem me-|am.|
V:3
 z8 | z8 | z8 | z4 D4- | D2 D2 D4 | z2 D2 D2 C2 |[M:4/4] B,2 A,2 B,4 | (G,4 A,4) | D4 ^C2 D2 | %9
w: |||Do\-|* mi- ne,|se- cun- dum|a- ctum me-|um *|no- li me|
 B,4 A,2 (B,2- | B,A,/G,/ A,2 B,3 A,) | (G,4 A,4) | z8 | z2 D4 ^C2 | D4 B,2 A,2 | %15
w: ju- di- ca\-||re, *||no- li|me ju- di-|
 (B,3 A,/G,/ A,4) | B,4 z2 (G,2- | G,A,B,C D2) G,2 | (B,4 A,2 G,2- | G,F,/E,/ D,2) E,4 | %20
w: ca\- * * *|re: ni\-|* * * * * hil|di\- * *|* * * * gnum,|
 z2 (G,3 A,B,C | D2) G,2 (C4 | B,2 A,3 G, G,2- | G,2 (F,E, F,4- | F,4) z4 | z2 D4 D2 | E4 D2 E2- | %27
w: ni\- * * *|* hil di\-||* gnum * *||in con-|spe- ctu tu\-|
 E2 A,2 z4 | z2 D,4 D,2 | G,4 E,2 G,2- | G,2 F,2 E,2 D,2 | D4 E4 | E3 D C2) A,2 | E4 E4 | D8 | %35
w: * o,|in con-|spe- ctu tu\-|* o e- gi,|in con-|spe\- * * ctu|tu- o|e-|
 D2 D3 D B,2 | C2 D2 E4- | E4 z2 E2- | E2 D2 C2 B,2 | (A,4 G,4) | (C,4 D,4) | z2 B,4 A,2 | %42
w: gi. I- de- o|de- pre- cor|* ma\-|* je- sta- tem|tu\- *|am, *|ma- je-|
 G,2 F,2 (E,F, G,2- | G,2) F,2 B,3 A, | B,2 (A,3 G, G,2- | G,2) F,2 G,2 D2 | B,4 C4 | B,4 z4 | z8 | %49
w: sta- tem tu\- * *|* am, ma- je-|sta- tem * *|* tu- am, ut|tu De-|us||
 z8 | z4 D3 D | ^C2 D2 B,2 C2 | D2 A,2 (B,3 A,/G,/ | B,A, D4 ^C2) | D4 z4 | G,4 D4 | E4 D4 | %57
w: |de- le-|as i- ni- qui-|ta- tem me\- * *||am,|ut tu|De- us|
 D3 D ^C2 D2 | B,2 ^C2 D2 B,2 | A,4 G,2 (A,2- | A,G, G,2) F,2 G,2- | G,2 F,2 A,3 A, | %62
w: de- le- as i-|ni- qui- ta- tem|me- am, ut|* * * tu De\-|* us de- le-|
 ^G,2 A,2 F,2 G,2 | A,2 F,2 E,4 | !fermata![D,F,]8 |] %65
w: as i- ni- qui-|ta- tem me-|am.|
V:4
 D,6 D,2 | D,4 z2 G,2 | G,2 F,2 E,2 D,2 | E,4 D,4 | G,,4 G,,2 G,,2 | C,2 B,,2 E,4 |[M:4/4] D,4 z4 | %7
w: Do- mi-|ne, se-|cun- dum a- ctum|me- um,|se- cun- dum|a- ctum me-|um|
 z2 G,4 F,2 | G,4 E,2 D,2 | (E,3 D, C,2 B,,2 | C,4) B,,4 | z2 G,4 F,2 | G,2 A,2 G,2 (G,,A,, | %13
w: no- li|me ju- di-|ca\- * * *|* re,|no- li|me ju- di- ca\- *|
 B,,C, D,2) G,,2 A,2 | G,2 F,2 G,2 A,2- | A,2 (G,4 F,2) | G,4 z4 | z4 z2 (G,,2- | %18
w: * * * re, no-|li me ju- di\-|* ca\- *|re:|ni\-|
 G,,A,,B,,C, D,2) G,,2 | B,,4 (A,,4 | G,,4) z4 | z2 (C,3 D,E,F, | G,2) C,2 E,4 | D,4 z2 D,2- | %24
w: * * * * * hil|di- gnum,||ni\- * * *|* hil di-|gnum in|
 D,2 D,2 G,4 | E,2 G,4 F,2 | (E,3 D,/C,/ B,,2 C,2 | A,,8) | G,,4 z4 | z8 | z4 G,,4- | %31
w: * con- spe-|ctu tu- o|e\- * * * *||gi,||in|
 G,,2 G,,2 C,4 | A,,4 =F,4 | (E,3 D, C,4) | D,8 | G,,8 | z4 z2 C,2- | C,C, C,2 D,2 E,2 | %38
w: * con- spe-|ctu tu-|o * *|e-|gi.|I\-|* de- o de- pre-|
 (=F,4 E,4) | z8 | z2 G,4 !courtesy!^F,2 | E,2 D,2 C,4 | B,,4 z4 | z4 G,,4 | D,4 E,4 | D,4 G,,4- | %46
w: cor *||ma- je-|sta- tem tu-|am,|ut|tu De-|us, ut|
 G,,2 G,,2 C,4 | G,,4 G,3 G, | F,2 G,2 E,2 F,2 | G,2 E,2 (D,4- | D,2 C,2 B,,4 | %51
w: * tu De-|us de- le-|as i- ni- qui-|ta- tem me\-||
 A,,2 D,2) G,,2 (G,2- | G,2 F,2 E,4) | D,4 z4 | G,,4 D,4 | E,4 D,4 | C,3 C, (G,,A,,B,,C, | %57
w: * * am, me\-||am,|ut tu|De- us|de- le- as * * *|
 D,2) G,,2 A,,2 D,2 | E,4 B,,3 ^C, | D,4 z4 | z8 | D,3 D, ^C,2 D,2 | B,,2 ^C,2 D,2 B,,2 | A,,8 | %64
w: * i- ni- qui-|ta- tem me-|am,||de- le- as i-|ni- qui- ta- tem|me-|
 !fermata!D,8 |] %65
w: am.|

